X:70
T: SCHOEN RUNDLICH UND FEIN
N: F0169
O: Europa, Mitteleuropa, Deutschland
R: Liebes - Lied
M: 3/8
L: 1/16
K: F
FG | A2AGAB | c4
A2 | B2BABd | c4
c2 | d2BABd | c2
d4 | dGGFGA | F4

